assets/i18n/b-de-dk.svg

<?xml version="1.0" encoding="UTF-8"?>
<svg width="237px" height="24px" viewBox="0 0 237 24" version="1.1" xmlns="http://www.w3.org/2000/svg" xmlns:xlink="http://www.w3.org/1999/xlink">
    <!-- Generator: Sketch 51.3 (57544) - http://www.bohemiancoding.com/sketch -->
    <title>SwG-DE Copy-Black</title>
    <desc>Created with Sketch.</desc>
    <defs></defs>
    <g id="SwG-DE-Copy" stroke="none" stroke-width="1" fill="none" fill-rule="evenodd">
        <path d="M0.276,19 L6.486,2.532 L8.878,2.532 L15.088,19 L12.742,19 L11.155,14.538 L4.232,14.538 L2.622,19 L0.276,19 Z M4.945,12.56 L10.419,12.56 L7.728,5.131 L7.636,5.131 L4.945,12.56 Z M22.75275,19.368 C21.894079,19.368 21.1235867,19.1840018 20.44125,18.816 C19.7589133,18.4479982 19.249085,17.9880028 18.91175,17.436 L18.81975,17.436 L18.81975,19 L16.79575,19 L16.79575,2.532 L18.91175,2.532 L18.91175,7.73 L18.81975,9.294 L18.91175,9.294 C19.249085,8.74199724 19.7589133,8.28200184 20.44125,7.914 C21.1235867,7.54599816 21.894079,7.362 22.75275,7.362 C24.2094239,7.362 25.4667447,7.93699425 26.52475,9.087 C27.5827553,10.2370057 28.11175,11.6629915 28.11175,13.365 C28.11175,15.0670085 27.5827553,16.4929942 26.52475,17.643 C25.4667447,18.7930057 24.2094239,19.368 22.75275,19.368 Z M22.40775,17.436 C23.3890882,17.436 24.2324131,17.0641704 24.93775,16.3205 C25.6430869,15.5768296 25.99575,14.5916728 25.99575,13.365 C25.99575,12.1383272 25.6430869,11.1531704 24.93775,10.4095 C24.2324131,9.66582962 23.3890882,9.294 22.40775,9.294 C21.4110784,9.294 20.5639202,9.66199632 19.86625,10.398 C19.1685798,11.1340037 18.81975,12.1229938 18.81975,13.365 C18.81975,14.6070062 19.1685798,15.5959963 19.86625,16.332 C20.5639202,17.0680037 21.4110784,17.436 22.40775,17.436 Z M31.1765,9.087 C32.2651721,7.93699425 33.6528249,7.362 35.3395,7.362 C37.0261751,7.362 38.4138279,7.93316096 39.5025,9.0755 C40.5911721,10.217839 41.1355,11.6476581 41.1355,13.365 C41.1355,15.0823419 40.5911721,16.512161 39.5025,17.6545 C38.4138279,18.796839 37.0261751,19.368 35.3395,19.368 C33.6528249,19.368 32.2651721,18.796839 31.1765,17.6545 C30.0878279,16.512161 29.5435,15.0823419 29.5435,13.365 C29.5435,11.6476581 30.0878279,10.2216723 31.1765,9.087 Z M32.7405,16.332 C33.4765037,17.0680037 34.3428284,17.436 35.3395,17.436 C36.3361716,17.436 37.198663,17.0641704 37.927,16.3205 C38.655337,15.5768296 39.0195,14.5916728 39.0195,13.365 C39.0195,12.1383272 38.655337,11.1531704 37.927,10.4095 C37.198663,9.66582962 36.3361716,9.294 35.3395,9.294 C34.3428284,9.294 33.480337,9.66582962 32.752,10.4095 C32.023663,11.1531704 31.6595,12.1383272 31.6595,13.365 C31.6595,14.5916728 32.0198297,15.5806629 32.7405,16.332 Z M45.00525,7.73 L45.00525,9.294 L45.09725,9.294 C45.4039182,8.75733065 45.8869134,8.30116854 46.54625,7.9255 C47.2055866,7.54983145 47.9109129,7.362 48.66225,7.362 C50.0575903,7.362 51.1232463,7.79132904 51.85925,8.65 C52.5952537,9.50867096 52.96325,10.6586595 52.96325,12.1 L52.96325,19 L50.84725,19 L50.84725,12.422 C50.84725,10.3366562 49.9195926,9.294 48.06425,9.294 C47.1902456,9.294 46.4772528,9.64282985 45.92525,10.3405 C45.3732472,11.0381702 45.09725,11.8469954 45.09725,12.767 L45.09725,19 L42.98125,19 L42.98125,7.73 L45.00525,7.73 Z M57.615,7.73 L57.615,9.294 L57.707,9.294 C58.0136682,8.75733065 58.4966634,8.30116854 59.156,7.9255 C59.8153366,7.54983145 60.5206629,7.362 61.272,7.362 C62.6673403,7.362 63.7329963,7.79132904 64.469,8.65 C65.2050037,9.50867096 65.573,10.6586595 65.573,12.1 L65.573,19 L63.457,19 L63.457,12.422 C63.457,10.3366562 62.5293426,9.294 60.674,9.294 C59.7999956,9.294 59.0870028,9.64282985 58.535,10.3405 C57.9829972,11.0381702 57.707,11.8469954 57.707,12.767 L57.707,19 L55.591,19 L55.591,7.73 L57.615,7.73 Z M70.50075,4.901 C70.2094152,5.19233479 69.8567521,5.338 69.44275,5.338 C69.0287479,5.338 68.6760848,5.19233479 68.38475,4.901 C68.0934152,4.60966521 67.94775,4.25700207 67.94775,3.843 C67.94775,3.42899793 68.0934152,3.07633479 68.38475,2.785 C68.6760848,2.49366521 69.0287479,2.348 69.44275,2.348 C69.8567521,2.348 70.2094152,2.49366521 70.50075,2.785 C70.7920848,3.07633479 70.93775,3.42899793 70.93775,3.843 C70.93775,4.25700207 70.7920848,4.60966521 70.50075,4.901 Z M70.50075,19 L68.38475,19 L68.38475,7.73 L70.50075,7.73 L70.50075,19 Z M78.3955,19.368 C76.6934915,19.368 75.309672,18.8006723 74.244,17.666 C73.178328,16.5313277 72.6455,15.0976753 72.6455,13.365 C72.6455,11.7243251 73.1629948,10.3136726 74.198,9.133 C75.2330052,7.95232743 76.555492,7.362 78.1655,7.362 C79.8368417,7.362 81.1746616,7.90632789 82.179,8.995 C83.1833384,10.0836721 83.6855,11.5403242 83.6855,13.365 L83.6625,13.756 L74.7615,13.756 C74.8228336,14.8906723 75.2023298,15.7876634 75.9,16.447 C76.5976702,17.1063366 77.414162,17.436 78.3495,17.436 C79.8675076,17.436 80.8948307,16.7920064 81.4315,15.504 L83.3175,16.286 C82.9494982,17.1600044 82.3438376,17.8921637 81.5005,18.4825 C80.6571625,19.0728363 79.6221728,19.368 78.3955,19.368 Z M81.4315,12.008 C81.3854998,11.3639968 81.0903361,10.7506696 80.546,10.168 C80.0016639,9.58533042 79.1928387,9.294 78.1195,9.294 C77.3374961,9.294 76.6590029,9.53933088 76.084,10.03 C75.5089971,10.5206691 75.1141677,11.1799959 74.8995,12.008 L81.4315,12.008 Z M87.87725,19 L85.76125,19 L85.76125,7.73 L87.78525,7.73 L87.78525,9.57 L87.87725,9.57 C88.0919177,8.9566636 88.5327467,8.45066866 89.19975,8.052 C89.8667533,7.65333134 90.5145802,7.454 91.14325,7.454 C91.7719198,7.454 92.3009145,7.54599908 92.73025,7.73 L91.92525,9.708 C91.6492486,9.60066613 91.2735857,9.547 90.79825,9.547 C90.0315795,9.547 89.3530863,9.84983031 88.76275,10.4555 C88.1724137,11.0611697 87.87725,11.8546618 87.87725,12.836 L87.87725,19 Z M98.67,19.368 C96.9679915,19.368 95.584172,18.8006723 94.5185,17.666 C93.452828,16.5313277 92.92,15.0976753 92.92,13.365 C92.92,11.7243251 93.4374948,10.3136726 94.4725,9.133 C95.5075052,7.95232743 96.829992,7.362 98.44,7.362 C100.111342,7.362 101.449162,7.90632789 102.4535,8.995 C103.457838,10.0836721 103.96,11.5403242 103.96,13.365 L103.937,13.756 L95.036,13.756 C95.0973336,14.8906723 95.4768298,15.7876634 96.1745,16.447 C96.8721702,17.1063366 97.688662,17.436 98.624,17.436 C100.142008,17.436 101.169331,16.7920064 101.706,15.504 L103.592,16.286 C103.223998,17.1600044 102.618338,17.8921637 101.775,18.4825 C100.931662,19.0728363 99.8966728,19.368 98.67,19.368 Z M101.706,12.008 C101.66,11.3639968 101.364836,10.7506696 100.8205,10.168 C100.276164,9.58533042 99.4673387,9.294 98.394,9.294 C97.6119961,9.294 96.9335029,9.53933088 96.3585,10.03 C95.7834971,10.5206691 95.3886677,11.1799959 95.174,12.008 L101.706,12.008 Z M108.05975,7.73 L108.05975,9.294 L108.15175,9.294 C108.458418,8.75733065 108.941413,8.30116854 109.60075,7.9255 C110.260087,7.54983145 110.965413,7.362 111.71675,7.362 C113.11209,7.362 114.177746,7.79132904 114.91375,8.65 C115.649754,9.50867096 116.01775,10.6586595 116.01775,12.1 L116.01775,19 L113.90175,19 L113.90175,12.422 C113.90175,10.3366562 112.974093,9.294 111.11875,9.294 C110.244746,9.294 109.531753,9.64282985 108.97975,10.3405 C108.427747,11.0381702 108.15175,11.8469954 108.15175,12.767 L108.15175,19 L106.03575,19 L106.03575,7.73 L108.05975,7.73 Z M123.84925,19 L123.84925,7.73 L125.87325,7.73 L125.87325,9.294 L125.96525,9.294 C126.287252,8.75733065 126.781747,8.30116854 127.44875,7.9255 C128.115753,7.54983145 128.778913,7.362 129.43825,7.362 C131.186259,7.362 132.37458,8.08265946 133.00325,9.524 C133.923255,8.08265946 135.234241,7.362 136.93625,7.362 C138.270257,7.362 139.27458,7.78749575 139.94925,8.6385 C140.62392,9.48950426 140.96125,10.6433261 140.96125,12.1 L140.96125,19 L138.84525,19 L138.84525,12.422 C138.84525,11.2873277 138.638252,10.4823357 138.22425,10.007 C137.810248,9.53166429 137.181588,9.294 136.33825,9.294 C135.510246,9.294 134.824086,9.64666314 134.27975,10.352 C133.735414,11.0573369 133.46325,11.8623288 133.46325,12.767 L133.46325,19 L131.34725,19 L131.34725,12.422 C131.34725,11.2873277 131.140252,10.4823357 130.72625,10.007 C130.312248,9.53166429 129.683588,9.294 128.84025,9.294 C128.012246,9.294 127.326086,9.64666314 126.78175,10.352 C126.237414,11.0573369 125.96525,11.8623288 125.96525,12.767 L125.96525,19 L123.84925,19 Z M145.889,4.901 C145.597665,5.19233479 145.245002,5.338 144.831,5.338 C144.416998,5.338 144.064335,5.19233479 143.773,4.901 C143.481665,4.60966521 143.336,4.25700207 143.336,3.843 C143.336,3.42899793 143.481665,3.07633479 143.773,2.785 C144.064335,2.49366521 144.416998,2.348 144.831,2.348 C145.245002,2.348 145.597665,2.49366521 145.889,2.785 C146.180335,3.07633479 146.326,3.42899793 146.326,3.843 C146.326,4.25700207 146.180335,4.60966521 145.889,4.901 Z M145.889,19 L143.773,19 L143.773,7.73 L145.889,7.73 L145.889,19 Z M153.55375,19.184 C152.373077,19.184 151.472253,18.8696698 150.85125,18.241 C150.230247,17.6123302 149.91975,16.7230057 149.91975,15.573 L149.91975,9.662 L147.94175,9.662 L147.94175,7.73 L149.91975,7.73 L149.91975,4.28 L152.03575,4.28 L152.03575,7.73 L154.79575,7.73 L154.79575,9.662 L152.03575,9.662 L152.03575,15.412 C152.03575,16.6386728 152.541745,17.252 153.55375,17.252 C153.937085,17.252 154.259082,17.1906673 154.51975,17.068 L155.25575,18.885 C154.795748,19.0843343 154.22842,19.184 153.55375,19.184 Z" id="Abonnieren-mit" fill="#FFFFFF"></path>
        <g id="Group" transform="translate(162.000000, 0.000000)" fill="#FFFFFF" fill-rule="nonzero">
            <path d="M9.36714443,19 C4.27673649,19 0,14.7346939 0,9.5 C0,4.26530612 4.27673649,0 9.36714443,0 C12.185226,0 14.1896362,1.13265306 15.6979052,2.62244898 L13.92172,4.44897959 C12.8401323,3.40816327 11.3715546,2.59183673 9.36714443,2.59183673 C5.646086,2.59183673 2.73869901,5.67346939 2.73869901,9.5 C2.73869901,13.3265306 5.646086,16.4081633 9.36714443,16.4081633 C11.7783903,16.4081633 13.1477398,15.4081633 14.030871,14.5102041 C14.755237,13.7653061 15.2216097,12.7040816 15.4002205,11.244898 L9.36714443,11.244898 L9.36714443,8.64285714 L17.8610805,8.64285714 C17.9503859,9.10204082 18,9.66326531 18,10.2653061 C18,12.2142857 17.4840132,14.622449 15.8169791,16.3367347 C14.1896362,18.0714286 12.1256891,19 9.36714443,19 Z" id="Shape"></path>
            <path d="M32,13 C32,16.4557596 29.3096447,19 26,19 C22.6903553,19 20,16.4557596 20,13 C20,9.52420701 22.6903553,7 26,7 C29.3096447,7 32,9.52420701 32,13 Z M29.3705584,13 C29.3705584,10.836394 27.8071066,9.3639399 26,9.3639399 C24.1928934,9.3639399 22.6294416,10.8464107 22.6294416,13 C22.6294416,15.1335559 24.1928934,16.6360601 26,16.6360601 C27.8071066,16.6360601 29.3705584,15.1435726 29.3705584,13 Z" id="Shape"></path>
            <path d="M45,13 C45,16.4557596 42.3096447,19 39,19 C35.7005076,19 33,16.4557596 33,13 C33,9.52420701 35.6903553,7 39,7 C42.3096447,7 45,9.52420701 45,13 Z M42.3807107,13 C42.3807107,10.836394 40.8172589,9.3639399 39.0101523,9.3639399 C37.2030457,9.3639399 35.6395939,10.8464107 35.6395939,13 C35.6395939,15.1335559 37.2030457,16.6360601 39.0101523,16.6360601 C40.8172589,16.6460768 42.3807107,15.1435726 42.3807107,13 Z" id="Shape"></path>
            <path d="M57,7.3621186 L57,17.8929188 C57,22.228555 54.5013055,24 51.5430809,24 C48.7571802,24 47.0913838,22.0915371 46.45953,20.5354059 L48.6518712,19.6056419 C49.0443864,20.5647668 50.0017406,21.6902706 51.5430809,21.6902706 C53.4386423,21.6902706 54.6066144,20.4864709 54.6066144,18.2452504 L54.6066144,17.4035694 L54.5204526,17.4035694 C53.9556136,18.1180196 52.8642298,18.7345999 51.4952132,18.7345999 C48.6231506,18.7345999 46,16.1801957 46,12.8917674 C46,9.58376511 48.6327241,7 51.4952132,7 C52.8642298,7 53.9556136,7.6263673 54.5204526,8.31145653 L54.6066144,8.31145653 L54.6066144,7.3621186 L57,7.3621186 Z M54.7789382,12.9015544 C54.7789382,10.8364997 53.4290688,9.31951641 51.7154047,9.31951641 C49.97302,9.31951641 48.5178416,10.8267127 48.5178416,12.9015544 C48.5178416,14.9470351 49.97302,16.4346575 51.7154047,16.4346575 C53.4290688,16.4346575 54.7789382,14.9470351 54.7789382,12.9015544 Z" id="Shape"></path>
            <polygon id="Shape" points="63 1 63 19 60 19 60 1"></polygon>
            <path d="M72.8441203,14.9732888 L74.8896992,16.3355593 C74.2278943,17.3171953 72.633546,19 69.8760255,19 C66.4567001,19 64,16.3656093 64,13 C64,9.43405676 66.4867821,7 69.5852325,7 C72.7037375,7 74.2278943,9.47412354 74.7292616,10.8163606 L75,11.4974958 L66.9680948,14.8230384 C67.579763,16.0250417 68.5423883,16.6460768 69.8860529,16.6460768 C71.2297174,16.6460768 72.1622607,15.9749583 72.8441203,14.9732888 Z M66.5369189,12.8096828 L71.911577,10.5859766 C71.6107566,9.83472454 70.72835,9.31385643 69.6754786,9.31385643 C68.331814,9.31385643 66.4667274,10.4958264 66.5369189,12.8096828 Z" id="Shape"></path>
        </g>
    </g>
</svg>

<svg width="237" height="24" viewBox="0 0 237 24" xmlns="http://www.w3.org/2000/svg"><title>SwG-DE-Black</title><desc>Created with Sketch.</desc><g fill="none"><path d="M.276 19l6.21-16.468h2.392l6.21 16.468h-2.346l-1.587-4.462h-6.923l-1.61 4.462h-2.346zm4.669-6.44h5.474l-2.691-7.429h-.092l-2.691 7.429zm17.808 6.808c-.859 0-1.629-.184-2.311-.552-.682-.368-1.192-.828-1.529-1.38h-.092v1.564h-2.024v-16.468h2.116v5.198l-.092 1.564h.092c.337-.552.847-1.012 1.529-1.38.682-.368 1.453-.552 2.311-.552 1.457 0 2.714.575 3.772 1.725 1.058 1.15 1.587 2.576 1.587 4.278 0 1.702-.529 3.128-1.587 4.278-1.058 1.15-2.315 1.725-3.772 1.725zm-.345-1.932c.981 0 1.825-.372 2.53-1.116.705-.744 1.058-1.729 1.058-2.955 0-1.227-.353-2.212-1.058-2.956-.705-.744-1.549-1.115-2.53-1.115-.997 0-1.844.368-2.541 1.104-.698.736-1.047 1.725-1.047 2.967s.349 2.231 1.047 2.967c.698.736 1.545 1.104 2.541 1.104zm8.769-8.349c1.089-1.15 2.476-1.725 4.163-1.725 1.687 0 3.074.571 4.163 1.713 1.089 1.142 1.633 2.572 1.633 4.29 0 1.717-.544 3.147-1.633 4.289s-2.476 1.713-4.163 1.713c-1.687 0-3.074-.571-4.163-1.713-1.089-1.142-1.633-2.572-1.633-4.289 0-1.717.544-3.143 1.633-4.278zm1.564 7.245c.736.736 1.602 1.104 2.599 1.104.997 0 1.859-.372 2.587-1.116.728-.744 1.093-1.729 1.093-2.955 0-1.227-.364-2.212-1.093-2.956-.728-.744-1.591-1.115-2.587-1.115-.997 0-1.859.372-2.587 1.115-.728.744-1.093 1.729-1.093 2.956 0 1.227.36 2.216 1.081 2.967zm12.265-8.602v1.564h.092c.307-.537.79-.993 1.449-1.369s1.365-.564 2.116-.564c1.395 0 2.461.429 3.197 1.288.736.859 1.104 2.009 1.104 3.45v6.9h-2.116v-6.578c0-2.085-.928-3.128-2.783-3.128-.874 0-1.587.349-2.139 1.046-.552.698-.828 1.506-.828 2.426v6.233h-2.116v-11.27h2.024zm12.61 0v1.564h.092c.307-.537.79-.993 1.449-1.369s1.365-.564 2.116-.564c1.395 0 2.461.429 3.197 1.288.736.859 1.104 2.009 1.104 3.45v6.9h-2.116v-6.578c0-2.085-.928-3.128-2.783-3.128-.874 0-1.587.349-2.139 1.046-.552.698-.828 1.506-.828 2.426v6.233h-2.116v-11.27h2.024zm12.886-2.829c-.291.291-.644.437-1.058.437-.414 0-.767-.146-1.058-.437-.291-.291-.437-.644-.437-1.058 0-.414.146-.767.437-1.058.291-.291.644-.437 1.058-.437.414 0 .767.146 1.058.437.291.291.437.644.437 1.058 0 .414-.146.767-.437 1.058zm0 14.099h-2.116v-11.27h2.116v11.27zm7.895.368c-1.702 0-3.086-.567-4.151-1.702-1.066-1.135-1.599-2.568-1.599-4.301 0-1.641.517-3.051 1.552-4.232 1.035-1.181 2.357-1.771 3.968-1.771 1.671 0 3.009.544 4.014 1.633 1.004 1.089 1.507 2.545 1.507 4.37l-.023.391h-8.901c.061 1.135.441 2.032 1.139 2.691.698.659 1.514.989 2.45.989 1.518 0 2.545-.644 3.082-1.932l1.886.782c-.368.874-.974 1.606-1.817 2.197-.843.59-1.878.885-3.105.885zm3.036-7.36c-.046-.644-.341-1.257-.885-1.84-.544-.583-1.353-.874-2.427-.874-.782 0-1.46.245-2.035.736-.575.491-.97 1.15-1.184 1.978h6.532zm6.446 6.992h-2.116v-11.27h2.024v1.84h.092c.215-.613.655-1.119 1.322-1.518s1.315-.598 1.944-.598 1.158.092 1.587.276l-.805 1.978c-.276-.107-.652-.161-1.127-.161-.767 0-1.445.303-2.035.909-.59.606-.885 1.399-.885 2.38v6.164zm10.793.368c-1.702 0-3.086-.567-4.151-1.702-1.066-1.135-1.599-2.568-1.599-4.301 0-1.641.517-3.051 1.552-4.232 1.035-1.181 2.357-1.771 3.968-1.771 1.671 0 3.009.544 4.014 1.633 1.004 1.089 1.506 2.545 1.506 4.37l-.023.391h-8.901c.061 1.135.441 2.032 1.138 2.691.698.659 1.514.989 2.45.989 1.518 0 2.545-.644 3.082-1.932l1.886.782c-.368.874-.974 1.606-1.817 2.197-.843.59-1.878.885-3.105.885zm3.036-7.36c-.046-.644-.341-1.257-.886-1.84-.544-.583-1.353-.874-2.426-.874-.782 0-1.46.245-2.035.736-.575.491-.97 1.15-1.184 1.978h6.532zm6.354-4.278v1.564h.092c.307-.537.79-.993 1.449-1.369s1.365-.564 2.116-.564c1.395 0 2.461.429 3.197 1.288.736.859 1.104 2.009 1.104 3.45v6.9h-2.116v-6.578c0-2.085-.928-3.128-2.783-3.128-.874 0-1.587.349-2.139 1.046-.552.698-.828 1.506-.828 2.426v6.233h-2.116v-11.27h2.024zm15.79 11.27v-11.27h2.024v1.564h.092c.322-.537.816-.993 1.484-1.369.667-.376 1.33-.564 1.99-.564 1.748 0 2.936.721 3.565 2.162.92-1.441 2.231-2.162 3.933-2.162 1.334 0 2.338.425 3.013 1.277.675.851 1.012 2.005 1.012 3.461v6.9h-2.116v-6.578c0-1.135-.207-1.94-.621-2.415-.414-.475-1.043-.713-1.886-.713-.828 0-1.514.353-2.058 1.058-.544.705-.817 1.51-.817 2.415v6.233h-2.116v-6.578c0-1.135-.207-1.94-.621-2.415-.414-.475-1.043-.713-1.886-.713-.828 0-1.514.353-2.058 1.058-.544.705-.817 1.51-.817 2.415v6.233h-2.116zm22.04-14.099c-.291.291-.644.437-1.058.437-.414 0-.767-.146-1.058-.437-.291-.291-.437-.644-.437-1.058 0-.414.146-.767.437-1.058.291-.291.644-.437 1.058-.437.414 0 .767.146 1.058.437.291.291.437.644.437 1.058 0 .414-.146.767-.437 1.058zm0 14.099h-2.116v-11.27h2.116v11.27zm7.665.184c-1.181 0-2.081-.314-2.703-.943-.621-.629-.931-1.518-.931-2.668v-5.911h-1.978v-1.932h1.978v-3.45h2.116v3.45h2.76v1.932h-2.76v5.75c0 1.227.506 1.84 1.518 1.84.383 0 .705-.061.966-.184l.736 1.817c-.46.199-1.027.299-1.702.299z" fill="#fff"/><g fill-rule="nonzero"><path d="M171.367 19c-5.09 0-9.367-4.265-9.367-9.5s4.277-9.5 9.367-9.5c2.818 0 4.822 1.133 6.331 2.622l-1.776 1.827c-1.082-1.041-2.55-1.857-4.555-1.857-3.721 0-6.628 3.082-6.628 6.908 0 3.827 2.907 6.908 6.628 6.908 2.411 0 3.781-1 4.664-1.898.724-.745 1.191-1.806 1.369-3.265h-6.033v-2.602h8.494c.089.459.139 1.02.139 1.622 0 1.949-.516 4.357-2.183 6.071-1.627 1.735-3.691 2.663-6.45 2.663z" id="Shape" fill="#4285F4"/><path d="M194 13c0 3.456-2.69 6-6 6s-6-2.544-6-6c0-3.476 2.69-6 6-6s6 2.524 6 6zm-2.629 0c0-2.164-1.563-3.636-3.371-3.636-1.807 0-3.371 1.482-3.371 3.636 0 2.134 1.563 3.636 3.371 3.636 1.807 0 3.371-1.492 3.371-3.636z" id="Shape" fill="#E94235"/><path d="M207 13c0 3.456-2.69 6-6 6-3.299 0-6-2.544-6-6 0-3.476 2.69-6 6-6s6 2.524 6 6zm-2.619 0c0-2.164-1.563-3.636-3.371-3.636-1.807 0-3.371 1.482-3.371 3.636 0 2.134 1.563 3.636 3.371 3.636 1.807.01 3.371-1.492 3.371-3.636z" id="Shape" fill="#FABB05"/><path d="M219 7.362v10.531c0 4.336-2.499 6.107-5.457 6.107-2.786 0-4.452-1.908-5.084-3.465l2.192-.93c.393.959 1.35 2.085 2.891 2.085 1.896 0 3.064-1.204 3.064-3.445v-.842h-.086c-.565.714-1.656 1.331-3.025 1.331-2.872 0-5.495-2.554-5.495-5.843 0-3.308 2.633-5.892 5.495-5.892 1.369 0 2.46.626 3.025 1.311h.086v-.949h2.393zm-2.221 5.539c0-2.065-1.35-3.582-3.064-3.582-1.742 0-3.198 1.507-3.198 3.582 0 2.045 1.455 3.533 3.198 3.533 1.714 0 3.064-1.488 3.064-3.533z" id="Shape" fill="#4285F4"/><path id="Shape" fill="#34A853" d="M225 1v18h-3v-18z"/><path d="M234.844 14.973l2.046 1.362c-.662.982-2.256 2.664-5.014 2.664-3.419 0-5.876-2.634-5.876-6 0-3.566 2.487-6 5.585-6 3.119 0 4.643 2.474 5.144 3.816l.271.681-8.032 3.326c.612 1.202 1.574 1.823 2.918 1.823s2.276-.671 2.958-1.673zm-6.307-2.164l5.375-2.224c-.301-.751-1.183-1.272-2.236-1.272-1.344 0-3.209 1.182-3.139 3.496z" fill="#E94235"/></g></g></svg>
